X:1
T:Straw Hat, The
M:6/8
L:1/8
S:The Hardy Collection (19th century)
R:Jig
K:D
d2D FED|ABA cBA|dcB AGF|EFE D3|d2D FED|
ABA cBA|Fdc BA^G|A3 A3::A>BA dcB|A>BA AFD|
ABA dcB|AGF E2 F/G/|ABA dcd|efg fed|Bgf edc|d6:|
